src/img/icons/weather.svg

<svg width="20" height="20" viewBox="0 0 20 20" fill="none" xmlns="http://www.w3.org/2000/svg">
    <path d="M11 18C11.2653 18 11.5196 18.1054 11.7071 18.2929C11.8947 18.4804 12 18.7348 12 19C12 19.2652 11.8947 19.5196 11.7071 19.7071C11.5196 19.8946 11.2653 20 11 20C10.7348 20 10.4805 19.8946 10.2929 19.7071C10.1054 19.5196 10 19.2652 10 19C10 18.7348 10.1054 18.4804 10.2929 18.2929C10.4805 18.1054 10.7348 18 11 18ZM7.50003 17C7.76525 17 8.0196 17.1054 8.20714 17.2929C8.39468 17.4804 8.50003 17.7348 8.50003 18C8.50003 18.2652 8.39468 18.5196 8.20714 18.7071C8.0196 18.8946 7.76525 19 7.50003 19C7.23482 19 6.98046 18.8946 6.79293 18.7071C6.60539 18.5196 6.50003 18.2652 6.50003 18C6.50003 17.7348 6.60539 17.4804 6.79293 17.2929C6.98046 17.1054 7.23482 17 7.50003 17ZM14.5 17C14.7653 17 15.0196 17.1054 15.2071 17.2929C15.3947 17.4804 15.5 17.7348 15.5 18C15.5 18.2652 15.3947 18.5196 15.2071 18.7071C15.0196 18.8946 14.7653 19 14.5 19C14.2348 19 13.9805 18.8946 13.7929 18.7071C13.6054 18.5196 13.5 18.2652 13.5 18C13.5 17.7348 13.6054 17.4804 13.7929 17.2929C13.9805 17.1054 14.2348 17 14.5 17ZM11.002 4.009C14.17 4.009 15.968 6.106 16.229 8.639H16.309C16.7933 8.63835 17.273 8.7331 17.7206 8.91784C18.1682 9.10259 18.5751 9.37371 18.918 9.71572C19.2608 10.0577 19.5329 10.4639 19.7188 10.9111C19.9046 11.3583 20.0005 11.8377 20.001 12.322C20.0004 12.8062 19.9044 13.2855 19.7185 13.7326C19.5326 14.1797 19.2604 14.5857 18.9176 14.9276C18.5748 15.2695 18.1679 15.5406 17.7204 15.7253C17.2728 15.9099 16.7932 16.0047 16.309 16.004H5.69403C5.20985 16.0047 4.73028 15.9099 4.2827 15.7253C3.83512 15.5406 3.4283 15.2695 3.08547 14.9276C2.74263 14.5857 2.4705 14.1797 2.2846 13.7326C2.09871 13.2855 2.00269 12.8062 2.00203 12.322C2.00256 11.8377 2.09848 11.3583 2.28432 10.9111C2.47015 10.4639 2.74227 10.0577 3.08511 9.71572C3.42796 9.37371 3.83483 9.10259 4.28247 8.91784C4.73011 8.7331 5.20977 8.63835 5.69403 8.639H5.77403C6.03703 6.089 7.83403 4.009 11.002 4.009ZM11.002 5.506C8.93003 5.506 7.12503 7.14 7.12503 9.396C7.12503 9.753 6.80604 10.034 6.44103 10.034H5.75103C4.48903 10.034 3.46703 11.034 3.46703 12.27C3.46703 13.505 4.48903 14.506 5.75003 14.506H16.253C17.514 14.506 18.536 13.506 18.536 12.27C18.536 11.035 17.514 10.034 16.253 10.034H15.563C15.197 10.034 14.878 9.754 14.878 9.396C14.878 7.111 13.073 5.506 11.002 5.506ZM2.36703 8.164C2.43657 8.33148 2.44308 8.51848 2.38535 8.69038C2.32762 8.86228 2.20956 9.00745 2.05303 9.099L1.96103 9.144L1.03503 9.528C0.859679 9.59948 0.663778 9.60197 0.486658 9.53499C0.309539 9.46801 0.164312 9.3365 0.0801337 9.16688C-0.00404485 8.99726 -0.0209443 8.80207 0.0328279 8.62051C0.0866001 8.43894 0.207063 8.28443 0.370035 8.188L0.461035 8.142L1.38703 7.758C1.47804 7.7203 1.57558 7.7009 1.67408 7.7009C1.77259 7.7009 1.87013 7.72031 1.96113 7.75801C2.05214 7.79571 2.13482 7.85097 2.20447 7.92063C2.27411 7.99029 2.32935 8.07299 2.36703 8.164ZM8.85403 3.331L8.68303 3.389C8.16294 3.57129 7.67137 3.82651 7.22303 4.147C6.74156 3.99061 6.22338 3.98771 5.74019 4.13872C5.257 4.28973 4.83268 4.58717 4.52594 4.98989C4.2192 5.39262 4.0452 5.88072 4.02802 6.38667C4.01084 6.89262 4.15132 7.3914 4.43003 7.814C3.94231 7.9508 3.48045 8.16703 3.06303 8.454C2.6047 7.66623 2.4335 6.74398 2.57857 5.8442C2.72363 4.94441 3.17599 4.1227 3.85868 3.51888C4.54136 2.91506 5.41218 2.56645 6.32295 2.53238C7.23371 2.49831 8.12814 2.78088 8.85403 3.332V3.331ZM0.941035 3.362L1.04603 3.397L1.97203 3.781C2.1457 3.85421 2.28543 3.99012 2.36344 4.16168C2.44145 4.33324 2.45201 4.52788 2.39301 4.70687C2.33402 4.88586 2.20981 5.03608 2.04508 5.12765C1.88035 5.21921 1.68719 5.2454 1.50403 5.201L1.39803 5.167L0.472035 4.783C0.29791 4.71001 0.157721 4.57403 0.0794557 4.40222C0.00119032 4.2304 -0.00939249 4.03538 0.04982 3.8561C0.109033 3.67682 0.233683 3.52647 0.398887 3.43507C0.56409 3.34366 0.75769 3.31793 0.941035 3.363V3.362ZM4.75603 0.376004L4.80103 0.467004L5.18503 1.393C5.25754 1.56851 5.26078 1.765 5.19408 1.9428C5.12738 2.1206 4.99572 2.26648 4.82567 2.351C4.65561 2.43552 4.45983 2.45238 4.27783 2.39819C4.09582 2.344 3.94116 2.22278 3.84503 2.059L3.79903 1.967L3.41503 1.041C3.34356 0.865648 3.34107 0.669747 3.40805 0.492627C3.47503 0.315508 3.60653 0.170281 3.77616 0.0861027C3.94578 0.00192413 4.14097 -0.0149753 4.32253 0.0387969C4.5041 0.0925691 4.65861 0.213032 4.75503 0.376004H4.75603ZM9.10903 0.0570035C9.27506 0.125914 9.41082 0.252167 9.49158 0.412767C9.57234 0.573367 9.59273 0.757632 9.54903 0.932003L9.51503 1.037L9.13103 1.963C9.05783 2.13667 8.92192 2.2764 8.75036 2.35441C8.5788 2.43242 8.38416 2.44297 8.20517 2.38398C8.02618 2.32499 7.87595 2.20077 7.78439 2.03605C7.69283 1.87132 7.66664 1.67816 7.71104 1.495L7.74604 1.389L8.12903 0.463004C8.16671 0.371991 8.22196 0.289292 8.2916 0.219631C8.36125 0.14997 8.44393 0.0947104 8.53494 0.0570087C8.62594 0.019307 8.72348 -9.82818e-05 8.82199 -9.91821e-05C8.92049 -0.000100082 9.01803 0.0193035 9.10903 0.0570035Z"
          fill="#4099F1"/>
</svg>

<svg width="20" height="20" fill="none" xmlns="http://www.w3.org/2000/svg"><path d="M11 18a1 1 0 110 2 1 1 0 010-2zm-3.5-1a1 1 0 110 2 1 1 0 010-2zm7 0a1 1 0 110 2 1 1 0 010-2zM11.002 4.009c3.168 0 4.966 2.097 5.227 4.63h.08a3.687 3.687 0 013.692 3.683 3.686 3.686 0 01-3.692 3.682H5.694a3.688 3.688 0 01-3.692-3.682 3.687 3.687 0 013.692-3.683h.08c.263-2.55 2.06-4.63 5.228-4.63zm0 1.497c-2.072 0-3.877 1.634-3.877 3.89 0 .357-.319.638-.684.638h-.69c-1.262 0-2.284 1-2.284 2.236 0 1.235 1.022 2.236 2.283 2.236h10.503c1.261 0 2.283-1 2.283-2.236 0-1.235-1.022-2.236-2.283-2.236h-.69c-.366 0-.685-.28-.685-.638 0-2.285-1.805-3.89-3.876-3.89zM2.367 8.164a.75.75 0 01-.314.935l-.092.045-.926.384a.75.75 0 01-.665-1.34l.091-.046.926-.384a.75.75 0 01.98.406zm6.487-4.833l-.171.058a5.822 5.822 0 00-1.46.758A2.442 2.442 0 004.43 7.814c-.488.137-.95.353-1.367.64a3.942 3.942 0 015.791-5.122v-.001zm-7.913.031l.105.035.926.384a.75.75 0 01-.468 1.42l-.106-.034-.926-.384a.75.75 0 01.469-1.42v-.001zM4.756.376l.045.091.384.926a.75.75 0 01-1.34.666l-.046-.092-.384-.926a.75.75 0 011.34-.665h.001zM9.109.057a.75.75 0 01.44.875l-.034.105-.384.926a.75.75 0 01-1.42-.468l.035-.106.383-.926a.75.75 0 01.98-.406z" fill="#4099F1"/></svg>
